X:1
T:Confidence (Ouseley), 77.77
T:Confidence (Ouseley), 77.77
T:Frederick Arthur Gore-Ouseley, 1889
T:Public Domain Courtesy of the Cyber Hymnal™
C:Frederick Arthur Gore-Ouseley, 1889
Z:Public Domain
Z:Courtesy of the Cyber Hymnal™
%%score ( 1 2 ) ( 3 4 )
L:1/8
Q:1/4=110
M:none
K:Eb
V:1 treble 
V:2 treble 
V:3 bass 
V:4 bass 
V:1
 [GB]2 [FB]2 | [Ee]2 [EB]2 [EA]2 [DF]2 | [EG]4 [FB]2 [Ec]2 | [Dd]2 F2 [FG]2 [E=A]2 | %4
 [DB]4 F2 [DF]2 | [EG]2 [EB]2 [Ee]2 [G_d]2 | [Ac]4 [Fc]2 [FB]2 | [EB]2 [Ee]2 [EG]2 [DF]2 | E4 |] %9
V:2
 x4 | x8 | x8 | x2 F2 x4 | x4 F2 x2 | x8 | x8 | x8 | E4 |] %9
V:3
 [E,B,]2 [D,B,]2 | [C,C]2 [G,B,]2 [F,C]2 B,2 | [E,B,]4 [D,B,]2 (B,=A,) | %3
 [B,,B,]2 [D,B,]2 [E,B,]2 F,2 | [B,,F,]4 [D,B,]2 [B,,B,]2 | [E,B,]2 G,2 [C,A,]2 [B,,E,]2 | %6
 [A,,E]4 [A,E]2 (DC) | [G,B,]2 [C,A,]2 [B,,B,]2 (B,A,) | [E,G,]4 |] %9
V:4
 x4 | x6 B,2 | x6 C,2 | x6 F,2 | x8 | x2 (E,_D,) x4 | x6 A,2 | x6 B,,2 | x4 |] %9

